X: 3586
T:Mickey the Moulder
R:double jig
M:6/8
L:1/8
K:D
FAA BAA|dAA BAA|FAA dfe|dBB B2A|!
FAA BAA|dAA def|gfe dfe|dBB B2A:|!
faa faa|fef d2e|faa faa|fed e3|!
faa baa|fef def|gfe dfe|dBB B2A:|!
